assets/1. 1-F/Bed/Color/Bed-color.svg

<svg width="100%" height="100%" viewBox="0 0 32 32" fill="none" xmlns="http://www.w3.org/2000/svg">
<path d="M4.06445 26.8438H7.04102V29.8906H4.06445V26.8438Z" fill="url(#paint0_linear_18_25598)"/>
<path d="M4.06445 26.8438H7.04102V29.8906H4.06445V26.8438Z" fill="url(#paint1_linear_18_25598)"/>
<path d="M24.9395 26.8438H27.916V29.8906H24.9395V26.8438Z" fill="url(#paint2_linear_18_25598)"/>
<path d="M24.9395 26.8438H27.916V29.8906H24.9395V26.8438Z" fill="url(#paint3_linear_18_25598)"/>
<g filter="url(#filter0_i_18_25598)">
<path d="M3.52344 10.0039C4.32274 10.0039 4.9707 10.6519 4.9707 11.4512L4.9707 20.65C4.9707 20.7052 4.92593 20.75 4.8707 20.75H2.17617C2.12094 20.75 2.07617 20.7052 2.07617 20.65L2.07617 11.4512C2.07617 10.6519 2.72414 10.0039 3.52344 10.0039Z" fill="url(#paint4_linear_18_25598)"/>
<path d="M3.52344 10.0039C4.32274 10.0039 4.9707 10.6519 4.9707 11.4512L4.9707 20.65C4.9707 20.7052 4.92593 20.75 4.8707 20.75H2.17617C2.12094 20.75 2.07617 20.7052 2.07617 20.65L2.07617 11.4512C2.07617 10.6519 2.72414 10.0039 3.52344 10.0039Z" fill="url(#paint5_radial_18_25598)"/>
</g>
<g filter="url(#filter1_ii_18_25598)">
<path d="M4.9707 16.4843C4.9707 16.7605 5.19456 16.9843 5.4707 16.9843H13.0801C13.2181 16.9843 13.3301 16.8724 13.3301 16.7343V16.0491C13.3301 15.3981 12.8814 14.833 12.2474 14.6855L6.68802 13.3918C5.8101 13.1875 4.9707 13.854 4.9707 14.7553V16.4843Z" fill="url(#paint6_linear_18_25598)"/>
</g>
<path d="M2.07617 20.95C2.07617 20.8395 2.16571 20.75 2.27617 20.75H29.7238C29.8343 20.75 29.9238 20.8395 29.9238 20.95V27.6984C29.9238 27.8089 29.8343 27.8984 29.7238 27.8984H2.27617C2.16572 27.8984 2.07617 27.8089 2.07617 27.6984V20.95Z" fill="url(#paint7_linear_18_25598)"/>
<path d="M2.07617 20.95C2.07617 20.8395 2.16571 20.75 2.27617 20.75H29.7238C29.8343 20.75 29.9238 20.8395 29.9238 20.95V27.6984C29.9238 27.8089 29.8343 27.8984 29.7238 27.8984H2.27617C2.16572 27.8984 2.07617 27.8089 2.07617 27.6984V20.95Z" fill="url(#paint8_linear_18_25598)"/>
<path d="M2.07617 20.95C2.07617 20.8395 2.16571 20.75 2.27617 20.75H29.7238C29.8343 20.75 29.9238 20.8395 29.9238 20.95V27.6984C29.9238 27.8089 29.8343 27.8984 29.7238 27.8984H2.27617C2.16572 27.8984 2.07617 27.8089 2.07617 27.6984V20.95Z" fill="url(#paint9_linear_18_25598)"/>
<path d="M2.07617 20.95C2.07617 20.8395 2.16571 20.75 2.27617 20.75H29.7238C29.8343 20.75 29.9238 20.8395 29.9238 20.95V27.6984C29.9238 27.8089 29.8343 27.8984 29.7238 27.8984H2.27617C2.16572 27.8984 2.07617 27.8089 2.07617 27.6984V20.95Z" fill="url(#paint10_linear_18_25598)"/>
<g filter="url(#filter2_f_18_25598)">
<path d="M14.592 18.5695C14.592 18.0824 15.1517 17.6875 15.842 17.6875H25.9827C27.9157 17.6875 29.4827 18.7932 29.4827 20.1571V22.124C29.4827 22.2799 29.3036 22.4062 29.0827 22.4062H14.992C14.7711 22.4062 14.592 22.2799 14.592 22.124V18.5695Z" fill="#361663"/>
</g>
<g filter="url(#filter3_i_18_25598)">
<path d="M4.9707 17.4844C4.9707 17.2082 5.19456 16.9844 5.4707 16.9844H17.2051V20.75H5.4707C5.19456 20.75 4.9707 20.5261 4.9707 20.25V17.4844Z" fill="#A8A5E6"/>
</g>
<path d="M4.9707 17.4844C4.9707 17.2082 5.19456 16.9844 5.4707 16.9844H17.2051V20.75H5.4707C5.19456 20.75 4.9707 20.5261 4.9707 20.25V17.4844Z" fill="url(#paint11_linear_18_25598)"/>
<g filter="url(#filter4_i_18_25598)">
<path d="M15.0332 16.5469C15.0332 15.8565 15.5928 15.2969 16.2832 15.2969H26.4238C28.3568 15.2969 29.9238 16.8639 29.9238 18.7969V21.5844C29.9238 21.8053 29.7447 21.9844 29.5238 21.9844H15.4332C15.2123 21.9844 15.0332 21.8053 15.0332 21.5844V16.5469Z" fill="url(#paint12_linear_18_25598)"/>
<path d="M15.0332 16.5469C15.0332 15.8565 15.5928 15.2969 16.2832 15.2969H26.4238C28.3568 15.2969 29.9238 16.8639 29.9238 18.7969V21.5844C29.9238 21.8053 29.7447 21.9844 29.5238 21.9844H15.4332C15.2123 21.9844 15.0332 21.8053 15.0332 21.5844V16.5469Z" fill="url(#paint13_linear_18_25598)"/>
</g>
<path d="M15.0332 16.5469C15.0332 15.8565 15.5928 15.2969 16.2832 15.2969H26.4238C28.3568 15.2969 29.9238 16.8639 29.9238 18.7969V21.5844C29.9238 21.8053 29.7447 21.9844 29.5238 21.9844H15.4332C15.2123 21.9844 15.0332 21.8053 15.0332 21.5844V16.5469Z" fill="url(#paint14_linear_18_25598)"/>
<defs>
<filter id="filter0_i_18_25598" x="2.07617" y="10.0039" width="3.89453" height="11.2461" filterUnits="userSpaceOnUse" color-interpolation-filters="sRGB">
<feFlood flood-opacity="0" result="BackgroundImageFix"/>
<feBlend mode="normal" in="SourceGraphic" in2="BackgroundImageFix" result="shape"/>
<feColorMatrix in="SourceAlpha" type="matrix" values="0 0 0 0 0 0 0 0 0 0 0 0 0 0 0 0 0 0 127 0" result="hardAlpha"/>
<feOffset dx="1" dy="0.5"/>
<feGaussianBlur stdDeviation="0.5"/>
<feComposite in2="hardAlpha" operator="arithmetic" k2="-1" k3="1"/>
<feColorMatrix type="matrix" values="0 0 0 0 0.152941 0 0 0 0 0.121569 0 0 0 0 0.317647 0 0 0 1 0"/>
<feBlend mode="normal" in2="shape" result="effect1_innerShadow_18_25598"/>
</filter>
<filter id="filter1_ii_18_25598" x="4.8207" y="13.1047" width="8.75938" height="4.02964" filterUnits="userSpaceOnUse" color-interpolation-filters="sRGB">
<feFlood flood-opacity="0" result="BackgroundImageFix"/>
<feBlend mode="normal" in="SourceGraphic" in2="BackgroundImageFix" result="shape"/>
<feColorMatrix in="SourceAlpha" type="matrix" values="0 0 0 0 0 0 0 0 0 0 0 0 0 0 0 0 0 0 127 0" result="hardAlpha"/>
<feOffset dx="0.25" dy="-0.25"/>
<feGaussianBlur stdDeviation="0.3"/>
<feComposite in2="hardAlpha" operator="arithmetic" k2="-1" k3="1"/>
<feColorMatrix type="matrix" values="0 0 0 0 0.0117647 0 0 0 0 0.321569 0 0 0 0 0.647059 0 0 0 1 0"/>
<feBlend mode="normal" in2="shape" result="effect1_innerShadow_18_25598"/>
<feColorMatrix in="SourceAlpha" type="matrix" values="0 0 0 0 0 0 0 0 0 0 0 0 0 0 0 0 0 0 127 0" result="hardAlpha"/>
<feOffset dx="-0.15" dy="0.15"/>
<feGaussianBlur stdDeviation="0.2"/>
<feComposite in2="hardAlpha" operator="arithmetic" k2="-1" k3="1"/>
<feColorMatrix type="matrix" values="0 0 0 0 0.231373 0 0 0 0 0.533333 0 0 0 0 0.823529 0 0 0 1 0"/>
<feBlend mode="normal" in2="effect1_innerShadow_18_25598" result="effect2_innerShadow_18_25598"/>
</filter>
<filter id="filter2_f_18_25598" x="13.842" y="16.9375" width="16.3906" height="6.21875" filterUnits="userSpaceOnUse" color-interpolation-filters="sRGB">
<feFlood flood-opacity="0" result="BackgroundImageFix"/>
<feBlend mode="normal" in="SourceGraphic" in2="BackgroundImageFix" result="shape"/>
<feGaussianBlur stdDeviation="0.375" result="effect1_foregroundBlur_18_25598"/>
</filter>
<filter id="filter3_i_18_25598" x="4.9707" y="16.9844" width="12.2344" height="3.76562" filterUnits="userSpaceOnUse" color-interpolation-filters="sRGB">
<feFlood flood-opacity="0" result="BackgroundImageFix"/>
<feBlend mode="normal" in="SourceGraphic" in2="BackgroundImageFix" result="shape"/>
<feColorMatrix in="SourceAlpha" type="matrix" values="0 0 0 0 0 0 0 0 0 0 0 0 0 0 0 0 0 0 127 0" result="hardAlpha"/>
<feOffset/>
<feGaussianBlur stdDeviation="0.5"/>
<feComposite in2="hardAlpha" operator="arithmetic" k2="-1" k3="1"/>
<feColorMatrix type="matrix" values="0 0 0 0 0.501961 0 0 0 0 0.52549 0 0 0 0 0.737255 0 0 0 1 0"/>
<feBlend mode="normal" in2="shape" result="effect1_innerShadow_18_25598"/>
</filter>
<filter id="filter4_i_18_25598" x="14.2832" y="15.2969" width="15.6406" height="6.9375" filterUnits="userSpaceOnUse" color-interpolation-filters="sRGB">
<feFlood flood-opacity="0" result="BackgroundImageFix"/>
<feBlend mode="normal" in="SourceGraphic" in2="BackgroundImageFix" result="shape"/>
<feColorMatrix in="SourceAlpha" type="matrix" values="0 0 0 0 0 0 0 0 0 0 0 0 0 0 0 0 0 0 127 0" result="hardAlpha"/>
<feOffset dx="-0.75" dy="0.25"/>
<feGaussianBlur stdDeviation="0.375"/>
<feComposite in2="hardAlpha" operator="arithmetic" k2="-1" k3="1"/>
<feColorMatrix type="matrix" values="0 0 0 0 0.266667 0 0 0 0 0.576471 0 0 0 0 0.823529 0 0 0 1 0"/>
<feBlend mode="normal" in2="shape" result="effect1_innerShadow_18_25598"/>
</filter>
<linearGradient id="paint0_linear_18_25598" x1="5.55273" y1="27.7187" x2="5.55273" y2="29.4375" gradientUnits="userSpaceOnUse">
<stop stop-color="#927EE0"/>
<stop offset="1" stop-color="#A69BEA"/>
</linearGradient>
<linearGradient id="paint1_linear_18_25598" x1="3.9707" y1="29.1875" x2="4.29883" y2="29.1875" gradientUnits="userSpaceOnUse">
<stop stop-color="#807ABD"/>
<stop offset="1" stop-color="#807ABD" stop-opacity="0"/>
</linearGradient>
<linearGradient id="paint2_linear_18_25598" x1="26.4277" y1="27.7187" x2="26.4277" y2="29.4375" gradientUnits="userSpaceOnUse">
<stop stop-color="#927EE0"/>
<stop offset="1" stop-color="#A69BEA"/>
</linearGradient>
<linearGradient id="paint3_linear_18_25598" x1="24.8457" y1="29.1875" x2="25.1738" y2="29.1875" gradientUnits="userSpaceOnUse">
<stop stop-color="#807ABD"/>
<stop offset="1" stop-color="#807ABD" stop-opacity="0"/>
</linearGradient>
<linearGradient id="paint4_linear_18_25598" x1="3.81445" y1="13.0313" x2="3.52344" y2="20.75" gradientUnits="userSpaceOnUse">
<stop stop-color="#3F3377"/>
<stop offset="1" stop-color="#45266E"/>
</linearGradient>
<radialGradient id="paint5_radial_18_25598" cx="0" cy="0" r="1" gradientUnits="userSpaceOnUse" gradientTransform="translate(4.31445 11) rotate(90) scale(0.90625 0.84375)">
<stop stop-color="#42477D"/>
<stop offset="1" stop-color="#42477D" stop-opacity="0"/>
</radialGradient>
<linearGradient id="paint6_linear_18_25598" x1="6.18945" y1="16.3125" x2="12.877" y2="16.3125" gradientUnits="userSpaceOnUse">
<stop stop-color="#236BCE"/>
<stop offset="1" stop-color="#236ED0"/>
</linearGradient>
<linearGradient id="paint7_linear_18_25598" x1="18.5957" y1="27.8984" x2="18.5957" y2="20.75" gradientUnits="userSpaceOnUse">
<stop stop-color="#52216C"/>
<stop offset="1" stop-color="#46256E"/>
</linearGradient>
<linearGradient id="paint8_linear_18_25598" x1="2.07617" y1="26.6875" x2="3.5332" y2="26.6875" gradientUnits="userSpaceOnUse">
<stop offset="0.212815" stop-color="#3D294A"/>
<stop offset="1" stop-color="#3D294A" stop-opacity="0"/>
</linearGradient>
<linearGradient id="paint9_linear_18_25598" x1="29.9238" y1="26.5313" x2="28.377" y2="26.5313" gradientUnits="userSpaceOnUse">
<stop offset="0.151515" stop-color="#533472"/>
<stop offset="1" stop-color="#533472" stop-opacity="0"/>
</linearGradient>
<linearGradient id="paint10_linear_18_25598" x1="16" y1="20.75" x2="16" y2="21.3438" gradientUnits="userSpaceOnUse">
<stop stop-color="#39225A"/>
<stop offset="1" stop-color="#39225A" stop-opacity="0"/>
</linearGradient>
<linearGradient id="paint11_linear_18_25598" x1="16.0332" y1="20.75" x2="12.7207" y2="20.75" gradientUnits="userSpaceOnUse">
<stop offset="0.264151" stop-color="#7874AE"/>
<stop offset="0.9999" stop-color="#A8A5E6" stop-opacity="0"/>
<stop offset="1" stop-color="#7874AE" stop-opacity="0"/>
</linearGradient>
<linearGradient id="paint12_linear_18_25598" x1="15.2832" y1="18.875" x2="29.9238" y2="18.9375" gradientUnits="userSpaceOnUse">
<stop stop-color="#246ED3"/>
<stop offset="1" stop-color="#256AD3"/>
</linearGradient>
<linearGradient id="paint13_linear_18_25598" x1="15.0332" y1="20.0625" x2="16.502" y2="20.0625" gradientUnits="userSpaceOnUse">
<stop stop-color="#183BA0"/>
<stop offset="1" stop-color="#174FCB" stop-opacity="0"/>
</linearGradient>
<linearGradient id="paint14_linear_18_25598" x1="26.252" y1="22.2656" x2="26.252" y2="21.5469" gradientUnits="userSpaceOnUse">
<stop stop-color="#1030C8"/>
<stop offset="1" stop-color="#1030C8" stop-opacity="0"/>
</linearGradient>
</defs>
</svg>

<svg width="100%" height="100%" viewBox="0 0 32 32" xmlns="http://www.w3.org/2000/svg"><path fill="url(#a)" d="M4.064 26.844h2.977v3.047H4.064z"/><path fill="url(#b)" d="M4.064 26.844h2.977v3.047H4.064z"/><path fill="url(#c)" d="M24.94 26.844h2.976v3.047h-2.977z"/><path fill="url(#d)" d="M24.94 26.844h2.976v3.047h-2.977z"/><g filter="url(#e)"><path fill="url(#f)" d="M3.523 10.004c.8 0 1.448.648 1.448 1.447v9.199a.1.1 0 0 1-.1.1H2.176a.1.1 0 0 1-.1-.1v-9.199c0-.8.648-1.447 1.447-1.447"/><path fill="url(#g)" d="M3.523 10.004c.8 0 1.448.648 1.448 1.447v9.199a.1.1 0 0 1-.1.1H2.176a.1.1 0 0 1-.1-.1v-9.199c0-.8.648-1.447 1.447-1.447"/></g><g filter="url(#h)"><path fill="url(#i)" d="M4.97 16.484a.5.5 0 0 0 .5.5h7.61a.25.25 0 0 0 .25-.25v-.685a1.4 1.4 0 0 0-1.083-1.364l-5.559-1.293a1.4 1.4 0 0 0-1.717 1.363z"/></g><path fill="url(#j)" d="M2.076 20.95c0-.11.09-.2.2-.2h27.448c.11 0 .2.09.2.2v6.748a.2.2 0 0 1-.2.2H2.276a.2.2 0 0 1-.2-.2z"/><path fill="url(#k)" d="M2.076 20.95c0-.11.09-.2.2-.2h27.448c.11 0 .2.09.2.2v6.748a.2.2 0 0 1-.2.2H2.276a.2.2 0 0 1-.2-.2z"/><path fill="url(#l)" d="M2.076 20.95c0-.11.09-.2.2-.2h27.448c.11 0 .2.09.2.2v6.748a.2.2 0 0 1-.2.2H2.276a.2.2 0 0 1-.2-.2z"/><path fill="url(#m)" d="M2.076 20.95c0-.11.09-.2.2-.2h27.448c.11 0 .2.09.2.2v6.748a.2.2 0 0 1-.2.2H2.276a.2.2 0 0 1-.2-.2z"/><g filter="url(#n)"><path fill="#361663" d="M14.592 18.57c0-.488.56-.883 1.25-.883h10.14c1.934 0 3.5 1.106 3.5 2.47v1.967c0 .156-.178.282-.4.282h-14.09c-.22 0-.4-.126-.4-.282z"/></g><g filter="url(#o)"><path fill="#A8A5E6" d="M4.97 17.484a.5.5 0 0 1 .5-.5h11.735v3.766H5.471a.5.5 0 0 1-.5-.5z"/></g><path fill="url(#p)" d="M4.97 17.484a.5.5 0 0 1 .5-.5h11.735v3.766H5.471a.5.5 0 0 1-.5-.5z"/><g filter="url(#q)"><path fill="url(#r)" d="M15.033 16.547c0-.69.56-1.25 1.25-1.25h10.14a3.5 3.5 0 0 1 3.5 3.5v2.787a.4.4 0 0 1-.4.4h-14.09a.4.4 0 0 1-.4-.4z"/><path fill="url(#s)" d="M15.033 16.547c0-.69.56-1.25 1.25-1.25h10.14a3.5 3.5 0 0 1 3.5 3.5v2.787a.4.4 0 0 1-.4.4h-14.09a.4.4 0 0 1-.4-.4z"/></g><path fill="url(#t)" d="M15.033 16.547c0-.69.56-1.25 1.25-1.25h10.14a3.5 3.5 0 0 1 3.5 3.5v2.787a.4.4 0 0 1-.4.4h-14.09a.4.4 0 0 1-.4-.4z"/><defs><linearGradient id="a" x1="5.553" x2="5.553" y1="27.719" y2="29.438" gradientUnits="userSpaceOnUse"><stop stop-color="#927EE0"/><stop offset="1" stop-color="#A69BEA"/></linearGradient><linearGradient id="b" x1="3.971" x2="4.299" y1="29.188" y2="29.188" gradientUnits="userSpaceOnUse"><stop stop-color="#807ABD"/><stop offset="1" stop-color="#807ABD" stop-opacity="0"/></linearGradient><linearGradient id="c" x1="26.428" x2="26.428" y1="27.719" y2="29.438" gradientUnits="userSpaceOnUse"><stop stop-color="#927EE0"/><stop offset="1" stop-color="#A69BEA"/></linearGradient><linearGradient id="d" x1="24.846" x2="25.174" y1="29.188" y2="29.188" gradientUnits="userSpaceOnUse"><stop stop-color="#807ABD"/><stop offset="1" stop-color="#807ABD" stop-opacity="0"/></linearGradient><linearGradient id="f" x1="3.814" x2="3.523" y1="13.031" y2="20.75" gradientUnits="userSpaceOnUse"><stop stop-color="#3F3377"/><stop offset="1" stop-color="#45266E"/></linearGradient><linearGradient id="i" x1="6.189" x2="12.877" y1="16.313" y2="16.313" gradientUnits="userSpaceOnUse"><stop stop-color="#236BCE"/><stop offset="1" stop-color="#236ED0"/></linearGradient><linearGradient id="j" x1="18.596" x2="18.596" y1="27.898" y2="20.75" gradientUnits="userSpaceOnUse"><stop stop-color="#52216C"/><stop offset="1" stop-color="#46256E"/></linearGradient><linearGradient id="k" x1="2.076" x2="3.533" y1="26.688" y2="26.688" gradientUnits="userSpaceOnUse"><stop offset=".213" stop-color="#3D294A"/><stop offset="1" stop-color="#3D294A" stop-opacity="0"/></linearGradient><linearGradient id="l" x1="29.924" x2="28.377" y1="26.531" y2="26.531" gradientUnits="userSpaceOnUse"><stop offset=".152" stop-color="#533472"/><stop offset="1" stop-color="#533472" stop-opacity="0"/></linearGradient><linearGradient id="m" x1="16" x2="16" y1="20.75" y2="21.344" gradientUnits="userSpaceOnUse"><stop stop-color="#39225A"/><stop offset="1" stop-color="#39225A" stop-opacity="0"/></linearGradient><linearGradient id="p" x1="16.033" x2="12.721" y1="20.75" y2="20.75" gradientUnits="userSpaceOnUse"><stop offset=".264" stop-color="#7874AE"/><stop offset="1" stop-color="#A8A5E6" stop-opacity="0"/><stop offset="1" stop-color="#7874AE" stop-opacity="0"/></linearGradient><linearGradient id="r" x1="15.283" x2="29.924" y1="18.875" y2="18.938" gradientUnits="userSpaceOnUse"><stop stop-color="#246ED3"/><stop offset="1" stop-color="#256AD3"/></linearGradient><linearGradient id="s" x1="15.033" x2="16.502" y1="20.063" y2="20.063" gradientUnits="userSpaceOnUse"><stop stop-color="#183BA0"/><stop offset="1" stop-color="#174FCB" stop-opacity="0"/></linearGradient><linearGradient id="t" x1="26.252" x2="26.252" y1="22.266" y2="21.547" gradientUnits="userSpaceOnUse"><stop stop-color="#1030C8"/><stop offset="1" stop-color="#1030C8" stop-opacity="0"/></linearGradient><filter id="e" width="3.895" height="11.246" x="2.076" y="10.004" color-interpolation-filters="sRGB" filterUnits="userSpaceOnUse"><feFlood flood-opacity="0" result="BackgroundImageFix"/><feBlend in="SourceGraphic" in2="BackgroundImageFix" result="shape"/><feColorMatrix in="SourceAlpha" result="hardAlpha" values="0 0 0 0 0 0 0 0 0 0 0 0 0 0 0 0 0 0 127 0"/><feOffset dx="1" dy=".5"/><feGaussianBlur stdDeviation=".5"/><feComposite in2="hardAlpha" k2="-1" k3="1" operator="arithmetic"/><feColorMatrix values="0 0 0 0 0.152941 0 0 0 0 0.121569 0 0 0 0 0.317647 0 0 0 1 0"/><feBlend in2="shape" result="effect1_innerShadow_18_25598"/></filter><filter id="h" width="8.759" height="4.03" x="4.821" y="13.105" color-interpolation-filters="sRGB" filterUnits="userSpaceOnUse"><feFlood flood-opacity="0" result="BackgroundImageFix"/><feBlend in="SourceGraphic" in2="BackgroundImageFix" result="shape"/><feColorMatrix in="SourceAlpha" result="hardAlpha" values="0 0 0 0 0 0 0 0 0 0 0 0 0 0 0 0 0 0 127 0"/><feOffset dx=".25" dy="-.25"/><feGaussianBlur stdDeviation=".3"/><feComposite in2="hardAlpha" k2="-1" k3="1" operator="arithmetic"/><feColorMatrix values="0 0 0 0 0.0117647 0 0 0 0 0.321569 0 0 0 0 0.647059 0 0 0 1 0"/><feBlend in2="shape" result="effect1_innerShadow_18_25598"/><feColorMatrix in="SourceAlpha" result="hardAlpha" values="0 0 0 0 0 0 0 0 0 0 0 0 0 0 0 0 0 0 127 0"/><feOffset dx="-.15" dy=".15"/><feGaussianBlur stdDeviation=".2"/><feComposite in2="hardAlpha" k2="-1" k3="1" operator="arithmetic"/><feColorMatrix values="0 0 0 0 0.231373 0 0 0 0 0.533333 0 0 0 0 0.823529 0 0 0 1 0"/><feBlend in2="effect1_innerShadow_18_25598" result="effect2_innerShadow_18_25598"/></filter><filter id="n" width="16.391" height="6.219" x="13.842" y="16.938" color-interpolation-filters="sRGB" filterUnits="userSpaceOnUse"><feFlood flood-opacity="0" result="BackgroundImageFix"/><feBlend in="SourceGraphic" in2="BackgroundImageFix" result="shape"/><feGaussianBlur result="effect1_foregroundBlur_18_25598" stdDeviation=".375"/></filter><filter id="o" width="12.234" height="3.766" x="4.971" y="16.984" color-interpolation-filters="sRGB" filterUnits="userSpaceOnUse"><feFlood flood-opacity="0" result="BackgroundImageFix"/><feBlend in="SourceGraphic" in2="BackgroundImageFix" result="shape"/><feColorMatrix in="SourceAlpha" result="hardAlpha" values="0 0 0 0 0 0 0 0 0 0 0 0 0 0 0 0 0 0 127 0"/><feOffset/><feGaussianBlur stdDeviation=".5"/><feComposite in2="hardAlpha" k2="-1" k3="1" operator="arithmetic"/><feColorMatrix values="0 0 0 0 0.501961 0 0 0 0 0.52549 0 0 0 0 0.737255 0 0 0 1 0"/><feBlend in2="shape" result="effect1_innerShadow_18_25598"/></filter><filter id="q" width="15.641" height="6.938" x="14.283" y="15.297" color-interpolation-filters="sRGB" filterUnits="userSpaceOnUse"><feFlood flood-opacity="0" result="BackgroundImageFix"/><feBlend in="SourceGraphic" in2="BackgroundImageFix" result="shape"/><feColorMatrix in="SourceAlpha" result="hardAlpha" values="0 0 0 0 0 0 0 0 0 0 0 0 0 0 0 0 0 0 127 0"/><feOffset dx="-.75" dy=".25"/><feGaussianBlur stdDeviation=".375"/><feComposite in2="hardAlpha" k2="-1" k3="1" operator="arithmetic"/><feColorMatrix values="0 0 0 0 0.266667 0 0 0 0 0.576471 0 0 0 0 0.823529 0 0 0 1 0"/><feBlend in2="shape" result="effect1_innerShadow_18_25598"/></filter><radialGradient id="g" cx="0" cy="0" r="1" gradientTransform="matrix(0 .90625 -.84375 0 4.314 11)" gradientUnits="userSpaceOnUse"><stop stop-color="#42477D"/><stop offset="1" stop-color="#42477D" stop-opacity="0"/></radialGradient></defs></svg>
